packages/ui-icons/src/Service-logos/24/MoreTv.svg

<svg viewBox="0 0 32 32" fill="none" xmlns="http://www.w3.org/2000/svg"><path d="M16 28c6.6 0 12-5.4 12-12S22.6 4 16 4 4 9.4 4 16s5.4 12 12 12Z" fill="#fff"/><path d="M24.3 16.4c0-1.8 1.4-3.2 3.2-3.2h.1C26.4 7.9 21.7 4 16 4 10.3 4 5.6 7.9 4.3 13.2h.2c.9 0 1.8.5 2.3 1.2.5-.8 1.4-1.2 2.3-1.2 1.5 0 2.7 1.2 2.8 2.7v3.5H11v-3.5c0-1-.8-1.8-1.8-1.8s-1.8.8-1.8 1.8v3.5H6.3v-3.5c0-1-.8-1.8-1.8-1.8h-.3C4 14.7 4 15.4 4 16c0 6.6 5.4 12 12 12 5.4 0 9.9-3.5 11.5-8.4-1.8 0-3.2-1.4-3.2-3.2Zm-8.1 3.2c-1.8 0-3.2-1.5-3.2-3.2 0-1.8 1.4-3.2 3.2-3.2 1.8 0 3.2 1.4 3.2 3.2.1 1.8-1.4 3.2-3.2 3.2Zm7.3-5.5c-1 0-1.9.8-1.9 1.8v3.5h-.9v-3.5c0-1.5 1.2-2.7 2.7-2.7h.1v.9Z" fill="#1D1D1B"/><path d="M27.5 14.1c-1 0-1.9.7-2.2 1.6H28c0-.5-.1-1.1-.1-1.6h-.4Zm-2.2 2.5c.1 1.2 1.1 2.1 2.3 2.1h.2c.2-.7.2-1.4.3-2.1h-2.8Z" fill="#1D1D1B"/></svg>

<svg viewBox="0 0 32 32" fill="none" xmlns="http://www.w3.org/2000/svg">
<path d="M16 28C22.6 28 28 22.6 28 16C28 9.4 22.6 4 16 4C9.4 4 4 9.4 4 16C4 22.6 9.4 28 16 28Z" fill="white"/>
<path d="M24.3 16.4C24.3 14.6 25.7 13.2 27.5 13.2H27.6C26.4 7.9 21.7 4 16 4C10.3 4 5.6 7.9 4.3 13.2H4.5C5.4 13.2 6.3 13.7 6.8 14.4C7.3 13.6 8.2 13.2 9.1 13.2C10.6 13.2 11.8 14.4 11.9 15.9V19.4H11V15.9C11 14.9 10.2 14.1 9.2 14.1C8.2 14.1 7.4 14.9 7.4 15.9V19.4H6.3V15.9C6.3 14.9 5.5 14.1 4.5 14.1H4.2C4 14.7 4 15.4 4 16C4 22.6 9.4 28 16 28C21.4 28 25.9 24.5 27.5 19.6C25.7 19.6 24.3 18.2 24.3 16.4ZM16.2 19.6C14.4 19.6 13 18.1 13 16.4C13 14.6 14.4 13.2 16.2 13.2C18 13.2 19.4 14.6 19.4 16.4C19.5 18.2 18 19.6 16.2 19.6ZM23.5 14.1C22.5 14.1 21.6 14.9 21.6 15.9V19.4H20.7V15.9C20.7 14.4 21.9 13.2 23.4 13.2H23.5V14.1Z" fill="#1D1D1B"/>
<path d="M27.5 14.1C26.5 14.1 25.6 14.8 25.3 15.7H28C28 15.2 27.9 14.6 27.9 14.1H27.5ZM25.3 16.6C25.4 17.8 26.4 18.7 27.6 18.7H27.8C28 18 28 17.3 28.1 16.6H25.3Z" fill="#1D1D1B"/>
</svg>
